app/img/icons/servises-icon-3-mb.svg

<svg width="44" height="44" viewBox="0 0 44 44" fill="none" xmlns="http://www.w3.org/2000/svg">
<path d="M41.6121 25.9375C41.1394 25.7418 40.6419 25.6425 40.1332 25.6425C39.0114 25.6425 37.9751 26.1213 37.2556 26.9236L36.4168 26.5761L34.0243 25.5851C34.3638 24.4486 34.547 23.2453 34.547 21.9999C34.547 20.7545 34.3637 19.5512 34.0243 18.4147L36.4168 17.4236L37.2556 17.0762C37.9751 17.8785 39.0114 18.3572 40.1332 18.3572C40.6419 18.3572 41.1394 18.258 41.6121 18.0621C43.582 17.2461 44.521 14.9795 43.7049 13.0094C43.1041 11.5588 41.7012 10.6214 40.1311 10.6214C39.6225 10.6214 39.1249 10.7207 38.6522 10.9165C37.0997 11.5596 36.1884 13.1036 36.2709 14.6934L35.4273 15.0428L33.0355 16.0335C31.8735 13.893 30.107 12.1264 27.9664 10.9645L28.9571 8.57268L29.3062 7.72998C29.3738 7.7335 29.4416 7.73556 29.5097 7.73556C31.0799 7.73556 32.4826 6.79825 33.0836 5.34762C33.8996 3.3776 32.9607 1.11091 30.9907 0.294851C30.5179 0.0992576 30.0204 0 29.5118 0C27.9416 0 26.5389 0.937319 25.9379 2.38794C25.2948 3.94048 25.7422 5.67668 26.9247 6.74247L26.5765 7.5832L25.5855 9.97578C24.4489 9.63633 23.2457 9.45302 22.0002 9.45302C20.7548 9.45302 19.5515 9.63633 18.415 9.97578L17.424 7.5832L17.0758 6.74247C18.2583 5.67668 18.7057 3.94048 18.0626 2.38785C17.4616 0.937319 16.0587 0 14.4886 0C13.98 0 13.4824 0.0992576 13.0097 0.295109C11.0398 1.11117 10.1008 3.37777 10.9169 5.34788C11.5178 6.79842 12.9206 7.73582 14.4907 7.73582C14.5588 7.73582 14.6266 7.73376 14.6942 7.73024L15.0433 8.57294L16.034 10.9647C13.8934 12.1267 12.1268 13.8932 10.9649 16.0338L8.57314 15.0431L7.72949 14.6937C7.81199 13.1039 6.90071 11.5599 5.34817 10.9167C4.87551 10.7209 4.37793 10.6217 3.86927 10.6217C2.29911 10.6217 0.896355 11.559 0.295395 13.0096C-0.52058 14.9797 0.418286 17.2463 2.38831 18.0624C2.86097 18.2582 3.35855 18.3574 3.86721 18.3574C4.98904 18.3574 6.02527 17.8787 6.74482 17.0764L7.58357 17.4238L9.97615 18.4148C9.63661 19.5513 9.45339 20.7546 9.45339 22C9.45339 23.2454 9.6367 24.4487 9.97615 25.5853L7.58348 26.5761L6.74474 26.9236C6.02518 26.1213 4.98895 25.6425 3.86712 25.6425C3.35846 25.6425 2.86088 25.7418 2.38823 25.9376C0.418286 26.7537 -0.520666 29.0203 0.295395 30.9904C0.896269 32.4409 2.29911 33.3783 3.86919 33.3783C4.37785 33.3783 4.87543 33.2791 5.34808 33.0832C6.90063 32.4401 7.8119 30.8961 7.7294 29.3063L8.57305 28.9569L10.9649 27.9662C12.1268 30.1068 13.8933 31.8734 16.0339 33.0353L15.0432 35.4271L14.6941 36.2698C14.6265 36.2662 14.5587 36.2642 14.4906 36.2642C12.9204 36.2642 11.5177 37.2015 10.9167 38.6521C10.1008 40.6221 11.0396 42.8888 13.0097 43.7049C13.4823 43.9007 13.9799 43.9999 14.4885 43.9999C16.0587 43.9999 17.4615 43.0626 18.0624 41.612C18.7055 40.0594 18.2581 38.3232 17.0756 37.2574L17.4238 36.4167L18.4149 34.0241C19.5514 34.3636 20.7547 34.5469 22.0001 34.5469C23.2455 34.5469 24.4488 34.3636 25.5853 34.0241L26.5763 36.4167L26.9245 37.2574C25.742 38.3232 25.2947 40.0594 25.9377 41.6121C26.5386 43.0626 27.9414 44 29.5115 44C30.0202 44 30.5178 43.9007 30.9904 43.7049C32.9604 42.8888 33.8993 40.6222 33.0832 38.6521C32.4824 37.2016 31.0795 36.2642 29.5095 36.2642C29.4414 36.2642 29.3736 36.2662 29.306 36.2698L28.9569 35.4271L27.9662 33.0353C30.1067 31.8733 31.8733 30.1068 33.0352 27.9662L35.427 28.9569L36.2707 29.3063C36.1882 30.8961 37.0994 32.4401 38.652 33.0833C39.1246 33.2791 39.6222 33.3783 40.1309 33.3783C41.701 33.3783 43.1038 32.441 43.7048 30.9904C44.521 29.0203 43.5822 26.7536 41.6121 25.9375ZM22.0002 31.9686C16.5035 31.9686 12.0315 27.4966 12.0315 21.9999C12.0315 16.5031 16.5035 12.0311 22.0002 12.0311C27.497 12.0311 31.969 16.5031 31.969 21.9999C31.969 27.4966 27.4969 31.9686 22.0002 31.9686Z" fill="black"/>
<path d="M41.6121 25.9375C41.1394 25.7418 40.6419 25.6425 40.1332 25.6425C39.0114 25.6425 37.9751 26.1213 37.2556 26.9236L36.4168 26.5761L34.0243 25.5851C34.3638 24.4486 34.547 23.2453 34.547 21.9999C34.547 20.7545 34.3637 19.5512 34.0243 18.4147L36.4168 17.4236L37.2556 17.0762C37.9751 17.8785 39.0114 18.3572 40.1332 18.3572C40.6419 18.3572 41.1394 18.258 41.6121 18.0621C43.582 17.2461 44.521 14.9795 43.7049 13.0094C43.1041 11.5588 41.7012 10.6214 40.1311 10.6214C39.6225 10.6214 39.1249 10.7207 38.6522 10.9165C37.0997 11.5596 36.1884 13.1036 36.2709 14.6934L35.4273 15.0428L33.0355 16.0335C31.8735 13.893 30.107 12.1264 27.9664 10.9645L28.9571 8.57268L29.3062 7.72998C29.3738 7.7335 29.4416 7.73556 29.5097 7.73556C31.0799 7.73556 32.4826 6.79825 33.0836 5.34762C33.8996 3.3776 32.9607 1.11091 30.9907 0.294851C30.5179 0.0992576 30.0204 0 29.5118 0C27.9416 0 26.5389 0.937319 25.9379 2.38794C25.2948 3.94048 25.7422 5.67668 26.9247 6.74247L26.5765 7.5832L25.5855 9.97578C24.4489 9.63633 23.2457 9.45302 22.0002 9.45302C20.7548 9.45302 19.5515 9.63633 18.415 9.97578L17.424 7.5832L17.0758 6.74247C18.2583 5.67668 18.7057 3.94048 18.0626 2.38785C17.4616 0.937319 16.0587 0 14.4886 0C13.98 0 13.4824 0.0992576 13.0097 0.295109C11.0398 1.11117 10.1008 3.37777 10.9169 5.34788C11.5178 6.79842 12.9206 7.73582 14.4907 7.73582C14.5588 7.73582 14.6266 7.73376 14.6942 7.73024L15.0433 8.57294L16.034 10.9647C13.8934 12.1267 12.1268 13.8932 10.9649 16.0338L8.57314 15.0431L7.72949 14.6937C7.81199 13.1039 6.90071 11.5599 5.34817 10.9167C4.87551 10.7209 4.37793 10.6217 3.86927 10.6217C2.29911 10.6217 0.896355 11.559 0.295395 13.0096C-0.52058 14.9797 0.418286 17.2463 2.38831 18.0624C2.86097 18.2582 3.35855 18.3574 3.86721 18.3574C4.98904 18.3574 6.02527 17.8787 6.74482 17.0764L7.58357 17.4238L9.97615 18.4148C9.63661 19.5513 9.45339 20.7546 9.45339 22C9.45339 23.2454 9.6367 24.4487 9.97615 25.5853L7.58348 26.5761L6.74474 26.9236C6.02518 26.1213 4.98895 25.6425 3.86712 25.6425C3.35846 25.6425 2.86088 25.7418 2.38823 25.9376C0.418286 26.7537 -0.520666 29.0203 0.295395 30.9904C0.896269 32.4409 2.29911 33.3783 3.86919 33.3783C4.37785 33.3783 4.87543 33.2791 5.34808 33.0832C6.90063 32.4401 7.8119 30.8961 7.7294 29.3063L8.57305 28.9569L10.9649 27.9662C12.1268 30.1068 13.8933 31.8734 16.0339 33.0353L15.0432 35.4271L14.6941 36.2698C14.6265 36.2662 14.5587 36.2642 14.4906 36.2642C12.9204 36.2642 11.5177 37.2015 10.9167 38.6521C10.1008 40.6221 11.0396 42.8888 13.0097 43.7049C13.4823 43.9007 13.9799 43.9999 14.4885 43.9999C16.0587 43.9999 17.4615 43.0626 18.0624 41.612C18.7055 40.0594 18.2581 38.3232 17.0756 37.2574L17.4238 36.4167L18.4149 34.0241C19.5514 34.3636 20.7547 34.5469 22.0001 34.5469C23.2455 34.5469 24.4488 34.3636 25.5853 34.0241L26.5763 36.4167L26.9245 37.2574C25.742 38.3232 25.2947 40.0594 25.9377 41.6121C26.5386 43.0626 27.9414 44 29.5115 44C30.0202 44 30.5178 43.9007 30.9904 43.7049C32.9604 42.8888 33.8993 40.6222 33.0832 38.6521C32.4824 37.2016 31.0795 36.2642 29.5095 36.2642C29.4414 36.2642 29.3736 36.2662 29.306 36.2698L28.9569 35.4271L27.9662 33.0353C30.1067 31.8733 31.8733 30.1068 33.0352 27.9662L35.427 28.9569L36.2707 29.3063C36.1882 30.8961 37.0994 32.4401 38.652 33.0833C39.1246 33.2791 39.6222 33.3783 40.1309 33.3783C41.701 33.3783 43.1038 32.441 43.7048 30.9904C44.521 29.0203 43.5822 26.7536 41.6121 25.9375ZM22.0002 31.9686C16.5035 31.9686 12.0315 27.4966 12.0315 21.9999C12.0315 16.5031 16.5035 12.0311 22.0002 12.0311C27.497 12.0311 31.969 16.5031 31.969 21.9999C31.969 27.4966 27.4969 31.9686 22.0002 31.9686Z" fill="url(#paint0_linear)"/>
<path d="M22 14.6093C17.9248 14.6093 14.6094 17.9247 14.6094 21.9999C14.6094 26.075 17.9248 29.3905 22 29.3905C26.0751 29.3905 29.3906 26.075 29.3906 21.9999C29.3906 17.9247 26.0751 14.6093 22 14.6093ZM23.289 24.8358H20.7109V19.1639H23.289V24.8358Z" fill="black"/>
<path d="M22 14.6093C17.9248 14.6093 14.6094 17.9247 14.6094 21.9999C14.6094 26.075 17.9248 29.3905 22 29.3905C26.0751 29.3905 29.3906 26.075 29.3906 21.9999C29.3906 17.9247 26.0751 14.6093 22 14.6093ZM23.289 24.8358H20.7109V19.1639H23.289V24.8358Z" fill="url(#paint1_linear)"/>
<defs>
<linearGradient id="paint0_linear" x1="22.0002" y1="0" x2="22.0002" y2="44" gradientUnits="userSpaceOnUse">
<stop stop-color="#EF8080"/>
<stop offset="1" stop-color="#F0145A"/>
</linearGradient>
<linearGradient id="paint1_linear" x1="22" y1="14.6093" x2="22" y2="29.3905" gradientUnits="userSpaceOnUse">
<stop stop-color="#EF8080"/>
<stop offset="1" stop-color="#F0145A"/>
</linearGradient>
</defs>
</svg>

<svg xmlns="http://www.w3.org/2000/svg" xmlns:xlink="http://www.w3.org/1999/xlink" width="44" height="44" fill="none" xmlns:v="https://vecta.io/nano"><use xlink:href="#C" fill="#000"/><use xlink:href="#C" fill="url(#A)"/><use xlink:href="#D" fill="#000"/><use xlink:href="#D" fill="url(#B)"/><defs><linearGradient id="A" x1="22" y1="0" x2="22" y2="44" gradientUnits="userSpaceOnUse"><stop stop-color="#ef8080"/><stop offset="1" stop-color="#f0145a"/></linearGradient><linearGradient id="B" x1="22" y1="14.609" x2="22" y2="29.391" gradientUnits="userSpaceOnUse"><stop stop-color="#ef8080"/><stop offset="1" stop-color="#f0145a"/></linearGradient><path id="C" d="M41.612 25.938c-.473-.196-.97-.295-1.479-.295-1.122 0-2.158.479-2.878 1.281l-.839-.348-2.393-.991c.34-1.137.523-2.34.523-3.585a12.51 12.51 0 0 0-.523-3.585l2.393-.991.839-.347c.719.802 1.756 1.281 2.878 1.281.509 0 1.006-.099 1.479-.295 1.97-.816 2.909-3.083 2.093-5.053-.601-1.451-2.004-2.388-3.574-2.388-.509 0-1.006.099-1.479.295-1.553.643-2.464 2.187-2.381 3.777l-.844.349-2.392.991c-1.162-2.14-2.928-3.907-5.069-5.069l.991-2.392.349-.843.203.006c1.57 0 2.973-.937 3.574-2.388.816-1.97-.123-4.237-2.093-5.053A3.85 3.85 0 0 0 29.512 0c-1.57 0-2.973.937-3.574 2.388-.643 1.553-.196 3.289.987 4.355l-.348.841-.991 2.393a12.51 12.51 0 0 0-7.171 0l-.991-2.393-.348-.841c1.182-1.066 1.63-2.802.987-4.355C17.462.937 16.059 0 14.489 0c-.509 0-1.006.099-1.479.295-1.97.816-2.909 3.083-2.093 5.053.601 1.451 2.004 2.388 3.574 2.388l.204-.006.349.843.991 2.392c-2.141 1.162-3.907 2.928-5.069 5.069l-2.392-.991-.844-.349c.082-1.59-.829-3.134-2.381-3.777-.473-.196-.97-.295-1.479-.295-1.57 0-2.973.937-3.574 2.388-.816 1.97.123 4.237 2.093 5.053.473.196.97.295 1.479.295 1.122 0 2.158-.479 2.878-1.281l.839.347 2.393.991c-.34 1.137-.523 2.34-.523 3.585a12.51 12.51 0 0 0 .523 3.585l-2.393.991-.839.348c-.72-.802-1.756-1.281-2.878-1.281-.509 0-1.006.099-1.479.295-1.97.816-2.909 3.083-2.093 5.053.601 1.45 2.004 2.388 3.574 2.388.509 0 1.006-.099 1.479-.295 1.553-.643 2.464-2.187 2.381-3.777l.844-.349 2.392-.991c1.162 2.141 2.928 3.907 5.069 5.069l-.991 2.392-.349.843-.203-.006c-1.57 0-2.973.937-3.574 2.388-.816 1.97.123 4.237 2.093 5.053.473.196.97.295 1.479.295 1.57 0 2.973-.937 3.574-2.388.643-1.553.196-3.289-.987-4.355l.348-.841.991-2.393c1.137.34 2.34.523 3.585.523s2.449-.183 3.585-.523l.991 2.393.348.841c-1.182 1.066-1.63 2.802-.987 4.355.601 1.451 2.004 2.388 3.574 2.388.509 0 1.006-.099 1.479-.295 1.97-.816 2.909-3.083 2.093-5.053-.601-1.45-2.004-2.388-3.574-2.388l-.203.006-.349-.843-.991-2.392c2.14-1.162 3.907-2.928 5.069-5.069l2.392.991.844.349c-.082 1.59.829 3.134 2.381 3.777.473.196.97.295 1.479.295 1.57 0 2.973-.937 3.574-2.388.816-1.97-.123-4.237-2.093-5.053zM22 31.969c-5.497 0-9.969-4.472-9.969-9.969s4.472-9.969 9.969-9.969 9.969 4.472 9.969 9.969-4.472 9.969-9.969 9.969z"/><path id="D" d="M22 14.609A7.4 7.4 0 0 0 14.609 22 7.4 7.4 0 0 0 22 29.391 7.4 7.4 0 0 0 29.391 22 7.4 7.4 0 0 0 22 14.609zm1.289 10.227h-2.578v-5.672h2.578v5.672z"/></defs></svg>
